src/assets/duotone/Headphones.svg

<?xml version="1.0" encoding="UTF-8"?>
<svg width="24" height="24" viewBox="0 0 24 24" xmlns="http://www.w3.org/2000/svg">
 <path d="m8.5 12.75c-0.41 0-0.75-0.34-0.75-0.75v-6c0-0.41 0.34-0.75 0.75-0.75s0.75 0.34 0.75 0.75v6c0 0.41-0.34 0.75-0.75 0.75z" opacity=".4"/>
 <path d="m8.5 22.75c-0.41 0-0.75-0.34-0.75-0.75v-4c0-0.41 0.34-0.75 0.75-0.75s0.75 0.34 0.75 0.75v4c0 0.41-0.34 0.75-0.75 0.75z" opacity=".4"/>
 <path d="m15.5 22.75c-0.41 0-0.75-0.34-0.75-0.75v-16c0-0.41 0.34-0.75 0.75-0.75s0.75 0.34 0.75 0.75v16c0 0.41-0.34 0.75-0.75 0.75z"/>
 <path d="m10.1 5.3c0 0.49-0.19998 0.95002-0.52998 1.27-0.32 0.33-0.77002 0.52997-1.27 0.52997h-2.25c0.28-0.37 0.45002-0.84998 0.45002-1.35v-0.90002c0-0.5-0.17002-0.97998-0.45002-1.35h2.25c0.99 0 1.8 0.80999 1.8 1.8z"/>
 <path d="m6.5 4.8495v0.90003c0 0.5-0.17001 0.97997-0.45001 1.35-0.76 1.01-2.32 1.35-3.77 0.06-0.16-0.14-0.28-0.43997-0.28-0.65997v-2.34c0-0.19 0.10001-0.46998 0.23001-0.60998 1.26-1.32 2.78-1.13 3.61-0.29999 0.07 0.07 0.13999 0.14999 0.20999 0.23999 0.28 0.38 0.45001 0.85998 0.45001 1.36z"/>
 <path d="m13.9 5.3c0 0.49 0.2 0.95002 0.53 1.27 0.32 0.33 0.77 0.52997 1.27 0.52997h2.25c-0.28-0.37-0.45-0.84998-0.45-1.35v-0.90002c0-0.5 0.17-0.97998 0.45-1.35h-2.25c-0.99 0-1.8 0.80999-1.8 1.8z"/>
 <path d="m17.5 4.8495v0.90003c0 0.5 0.17 0.97997 0.45 1.35 0.76 1.01 2.32 1.35 3.77 0.06 0.16-0.14 0.28-0.43997 0.28-0.65997v-2.34c0-0.19-0.1-0.46998-0.23-0.60998-1.26-1.32-2.78-1.13-3.61-0.29999-0.07 0.07-0.14 0.14999-0.21 0.23999-0.28 0.38-0.45 0.85998-0.45 1.36z"/>
 <path d="m10 13.5v4c0 0.83-0.67 1.5-1.5 1.5s-1.5-0.67-1.5-1.5v-4c0-0.83 0.67-1.5 1.5-1.5s1.5 0.67 1.5 1.5z"/>
</svg>

<svg width="24" height="24" viewBox="0 0 24 24"  xmlns="http://www.w3.org/2000/svg">
<path opacity="0.4" d="M8.5 12.75C8.09 12.75 7.75 12.41 7.75 12V6C7.75 5.59 8.09 5.25 8.5 5.25C8.91 5.25 9.25 5.59 9.25 6V12C9.25 12.41 8.91 12.75 8.5 12.75Z" />
<path opacity="0.4" d="M8.5 22.75C8.09 22.75 7.75 22.41 7.75 22V18C7.75 17.59 8.09 17.25 8.5 17.25C8.91 17.25 9.25 17.59 9.25 18V22C9.25 22.41 8.91 22.75 8.5 22.75Z" />
<path d="M15.5 22.75C15.09 22.75 14.75 22.41 14.75 22V6C14.75 5.59 15.09 5.25 15.5 5.25C15.91 5.25 16.25 5.59 16.25 6V22C16.25 22.41 15.91 22.75 15.5 22.75Z" />
<path d="M10.0998 5.29999C10.0998 5.78999 9.89982 6.25001 9.56982 6.57001C9.24982 6.90001 8.7998 7.09998 8.2998 7.09998H6.0498C6.3298 6.72998 6.49982 6.25 6.49982 5.75V4.84998C6.49982 4.34998 6.3298 3.87 6.0498 3.5H8.2998C9.2898 3.5 10.0998 4.30999 10.0998 5.29999Z" />
<path d="M6.5 4.84953V5.74956C6.5 6.24956 6.32999 6.72953 6.04999 7.09953C5.28999 8.10953 3.73 8.44953 2.28 7.15953C2.12 7.01953 2 6.71956 2 6.49956V4.15953C2 3.96953 2.10001 3.68955 2.23001 3.54955C3.49001 2.22955 5.01 2.41956 5.84 3.24956C5.91 3.31956 5.97999 3.39955 6.04999 3.48955C6.32999 3.86955 6.5 4.34953 6.5 4.84953Z" />
<path d="M13.8999 5.29999C13.8999 5.78999 14.0999 6.25001 14.4299 6.57001C14.7499 6.90001 15.1999 7.09998 15.6999 7.09998H17.9499C17.6699 6.72998 17.4999 6.25 17.4999 5.75V4.84998C17.4999 4.34998 17.6699 3.87 17.9499 3.5H15.6999C14.7099 3.5 13.8999 4.30999 13.8999 5.29999Z" />
<path d="M17.5 4.84953V5.74956C17.5 6.24956 17.67 6.72953 17.95 7.09953C18.71 8.10953 20.27 8.44953 21.72 7.15953C21.88 7.01953 22 6.71956 22 6.49956V4.15953C22 3.96953 21.9 3.68955 21.77 3.54955C20.51 2.22955 18.99 2.41956 18.16 3.24956C18.09 3.31956 18.02 3.39955 17.95 3.48955C17.67 3.86955 17.5 4.34953 17.5 4.84953Z" />
<path d="M10 13.5V17.5C10 18.33 9.33 19 8.5 19C7.67 19 7 18.33 7 17.5V13.5C7 12.67 7.67 12 8.5 12C9.33 12 10 12.67 10 13.5Z" />
</svg>
